X:1
T:Rich in Mercy
T:Rich in Mercy
T:Howard S. Thursby
T:Howard S. Thursby, 1887
T:Public Domain Courtesy of the Cyber Hymnal™
T:Public Domain Courtesy of the Cyber Hymnal™
C:Howard S. Thursby
Z:Public Domain
Z:Courtesy of the Cyber Hymnal™
%%score ( 1 2 ) ( 3 4 )
L:1/8
Q:1/4=92
M:3/4
K:E
V:1 treble 
V:2 treble 
V:3 bass 
V:4 bass 
V:1
 [EG]>[EG] | [EA]2 [EG]2 [DF]>[DG] | E2 B,2 [FA]>[EG] | [EG]2 B,2 [DF]>[EG] | %4
w: 1.~“Rich in|mer- cy,” hear the|mes- sage Full of|bless- ings from a-|
w: 2.~“Rich in|mer- cy,” dost thou|hear it? Lost one,|wea- ry, help- less,|
w: 3.~“Rich in|mer- cy,” loud pro-|claim it! May the|her- alds ne- ver|
 (FB [DA]2)!<(! [EG]>[EA] | [EB]2!<)! [EG]2!<(! [EA]>[EB]!<)! | [Ec]2 [EB]2 [EG]>[EG] | %7
w: bove; * * God is|call- ing to the|way- ward In the|
w: poor; * * Wilt thou|hast- en to be-|lieve it? And a|
w: cease * * Un- til|ev- ery soul led|cap- tive Finds in|
 [EG]2 E2 [DF]>[DG] | E4 [FB] (c/d/) | [Ee]2 [EB]2 [Ec]>[Ee] | [Ec]2 [EB]2 [Ge]>[Gc] | %11
w: sweet- est tones of|love: “Rich in *|mer- cy,” gra- cious|ac- cents, Fall- ing|
w: Sav- ior’s love im-|plore: Are you *|need- y? God has|rich- es Far be-|
w: Christ a sweet re-|lease; Come, then, *|sin- ner, how- e’er|need- y, All thy|
 [FB]2 [DF]2 [Ec]>[DB] | [DB]4 [EG]>[EA] | [EB]2 [EG]2 [EA]>[EB] | [Ec]2 !fermata![Ee]2 [Ed]>[Ec] | %15
w: like a breath from|Heav’n; Souls are|pur- chased with a|ran- som, And the|
w: yond what we can|know, And the|great- ness of His|glo- ry Is not|
w: wants to Je- sus|bring; There are|rich- es, and there’s|mer- cy, In the|
 [EB]2 [EG]2 [Dc]>[DB] | E4 ||"^Refrain" [GB]>[GB] | [GB]2 [EG]2 [ce]>[Ac] | %19
w: con- trite are for-|giv’n.|||
w: heard of here be-|low.|“Rich in|mer- cy,” won- drous|
w: pre- sence of the|King.|||
 [GB]2 [EG]2 [Ad]>[Ac] | [FB]2 [DF]2 [Dc]>[DB] | [EB]4 [GB]>[GB] | [GB]2 [EG]2 [ce]>[Ac] | %23
w: ||||
w: sto- ry, Let us|sing it once a-|gain; Sweet- er|mus- ic to the|
w: ||||
 [GB]2 [EG]2 [Ec]>[EB] | [EG]2 [B,E]2 [DF]>[B,E] | [B,E]4 |] %26
w: |||
w: wea- ry, Than the|an- gels’ glad re-|frain.|
w: |||
V:2
 x2 | x6 | E2 B,2 x2 | x2 B,2 x2 | D2 x4 | x6 | x6 | x2 E2 x2 | E4 F x | x6 | x6 | x6 | x6 | x6 | %14
 x6 | x6 | E4 || x2 | x6 | x6 | x6 | x6 | x6 | x6 | x6 | x4 |] %26
V:3
 [E,B,]>[E,B,] | [E,C]2 [E,B,]2 [B,,A,]>[B,,A,] | [E,G,]2 [E,G,]2 [D,B,]>[E,B,] | %3
w: ~ ~|~ ~ ~ ~|~ ~ ~ ~|
 [B,,B,]2 [D,B,]2 [B,,B,]>[B,,B,] | [B,,B,]4 [E,B,]>[F,B,] | [G,B,]2 [E,B,]2 [F,B,]>[G,B,] | %6
w: ~ ~ ~ ~|~ ~ ~|~ ~ ~ ~|
 A,2 [G,B,]2 [E,B,]>[E,B,] | [E,B,]2 [G,,B,]2 [B,,A,]>[B,,B,] | [E,G,]4 [D,B,][D,B,] | %9
w: ~ ~ ~ ~|~ ~ ~ ~|~ ~ ~|
 [C,G,]2 [G,,B,]2 [A,,A,]>[C,A,] | [E,A,]2 [E,G,]2 [E,C]>[E,E] | [F,D]2 [F,B,]2 [F,^A,]>[B,,B,] | %12
w: ~ ~ ~ ~|~ ~ ~ ~|~ ~ ~ ~|
 [B,,B,]4 [E,B,]>[F,B,] | [G,B,]2 [E,B,]2 [F,B,]>[G,B,] | A,2 !fermata![A,C]2 [A,,A,]>[A,,A,] | %15
w: ~ ~ ~|~ ~ ~ ~|~ ~ ~ ~|
 [B,,G,]2 [B,,B,]2 [B,,A,]>[B,,A,] | [E,G,]4 || z2 | [E,B,][E,B,] [E,B,][E,B,] z2 | %19
w: ~ ~ ~ ~|~||“Rich in mer- cy,”|
 [E,B,][E,B,] [E,B,][E,B,] [B,,F]>[B,,E] | [B,,D]2 [B,,B,]2 [B,,A,]>[B,,A,] | [E,G,]4 z2 | %22
w: won- drous sto- ry ~ ~|~ ~ ~ ~|~|
 [E,B,][E,B,] [E,B,][E,B,] z2 | [E,B,][E,B,] [E,B,][E,B,] [E,A,]>[E,G,] | %24
w: Sweet- er mu- sic|to the wea- ry, * *|
 [B,,B,]2 [B,,G,]2 [B,,A,]>[E,G,] | [E,G,]4 |] %26
w: ||
V:4
 x2 | x6 | x6 | x6 | x6 | x6 | A,2 x4 | x6 | x6 | x6 | x6 | x6 | x6 | x6 | A,2 x4 | x6 | x4 || x2 | %18
 x6 | x6 | x6 | x6 | x6 | x6 | x6 | x4 |] %26

